X: 0
T:Trill Trall
F:http://richardrobinson.tunebook.org.uk/tune/5482
M:3/4
K:Bm
|: FF BB AF | GF GA B2 | FF BB AF | GA B4 :||
GF G4 | BA F4 | dc Bc dc | BA F4 | EF G4 | BA F2 E D | E6 ||
K:Am
|: EE AA GE | FE FG A2 | EE AA GE | FG A4 :||
FE F4 | AG E4 | cB AB cB | AG E4 | DE F4 | AG E2 D C | D6 ||
K:Gm
|: DD GG FD | ED EF G2 | DD GG FD | EF G4 :||
ED E4 | GF D4 | BA GA BA | GF D4 | CD E4 | GF D2 C B, | C6 ||
